X: 1507
T: Nikrîz Zeybek (No 1)
C: Tanburî Cemil Bey
O: Turkey
F: http://compmusic.upf.edu/node/140
N: nikriz--zeybek--aksak--1--tanburi_cemil_bey
N: makam= nikriz
N: form= zeybek
N: usul= aksak = 9/8
M: 9/8
L: 1/16
K: C _7/8B ^3/4f ^c 
Q: 1/4=144
%%MIDI tuningsystem comma53
_1/4B3/2=c/BA G2B2 B3/2A/AG G3/2A/Bc de | \
w:   | 
d3/2=c/ _1/4BAG2 B2B3/2A/ AGG2 G2G2  | 
w:   | 
_1/4B3/2=c/BA G2B2 B3/2A/AG G3/2A/Bc de | \
w:   | 
d3/2=c/ _1/4BAG2 B2B3/2A/ AGG2 G2G2  | 
w:   | 
{G}=c4 c4 c2(3_1/4B^AB d2^c2 _7/8B2 | \
w:   | 
=c3/2d/ e^fg3/2f/ ed=f3/2e/ dcd2 _1/4B2B2  | 
w:   | 
.=c4 .c4 c2(3_1/4B^AB d2^c2 _7/8B2 | \
w:   | 
cd d2cd d2d/c/B/A/ G2.G2 .G2.G2  | 
w:   | 
{G}=c4 c4 c2(3_1/4B^AB d2^c2 _7/8B2 | \
w:   | 
=c3/2d/ e^fg3/2f/ ed=f3/2e/ dcd2 _1/4B2B2  | 
w:   | 
.=c4 .c4 c2(3_1/4B^AB d2^c2 _7/8B2 | \
w:   | 
cd d2cd d2d/c/B/A/ G2.G2 .G2.G2  | 
w:   | 
g3/2=f/ed g3/2f/ed c3/2d/e^f d2e2 f2 | \
w:   | 
g3/2=f/ edg3/2f/ edcd ef.d2 .d2.d2  | 
w:   | 
g3/2=f/ed g3/2f/ed c3/2d/e^f d2e2 f2 | \
w:   | 
g3/2=f/ edg3/2f/ edcd ef.d2 .d2.d2  | 
w:   | 
=c4 c4 c2(3_1/4B^AB d2^c2 _7/8B2 | \
w:   | 
(3dcd ed(3gg=f (3eed(3ccB (3BBA.G2 .G2.G2  | 
w:   | 
=c4 c4 c2(3_1/4B^AB d2^c2 _7/8B2 | \
w:   | 
(3dcd ed(3gg=f (3eed(3ccB (3BBA.G2 .G2.G2  | 
w:   | 
g4 g4 g3/2d/e^f gfgf g2 | a2 b2a4g2 a2g2 d'2d'2  | \
w:   |   | 
a2b2 a4 g3^f g2d2 g2 | 
w:   | 
a2 b2a4g3^fd'6  | a2b2 a4 g3^f g4 e2 | \
w:   |   | 
e^f gfgf gfgf gfgf ged2  | 
w:   | 
e^fga g3/2=f/ed fedc d2_1/4B2 B2 | \
w:   | 
e^f gfgf gagf edag =fed2  | 
w:   | 
deed c4 B2d3/2c/ BAG4 | g3/2=f/ edg3/2f/ edc3/2d/ e^fd2 e2f2  | 
w:   |   | 
g3/2=f/ed g3/2f/ed cdef .d2.d2 .d2 | \
w:   | 
g3/2=f/ edg3/2f/ edc3/2d/ e^fd2 e2f2  | 
w:   | 
g3/2=f/ed g3/2f/ed cdef .d2.d2 .d2 | \
w:   | 
=c4c4c2 (3_1/4B^ABd2 ^c2_7/8B2  | 
w:   | 
(3dcded (3gg=f(3eed (3ccB(3BBA .G2.G2 .G2 | \
w:   | 
=c4c4c2 (3_1/4B^ABd2 ^c2_7/8B2  | 
w:   | 
(3dcded (3gg=f(3eed (3ccB(3BBA .G2.G2 .G2 | |


